public/cloud-icons/azure/dynamics-365/mixed-reality-guide.svg

<svg xmlns="http://www.w3.org/2000/svg" xml:space="preserve" width="53.86" height="56.697" style="font-size:12px;overflow:visible;color-interpolation-filters:sRGB;fill-rule:evenodd;stroke-linecap:square;stroke-miterlimit:3" viewBox="0 0 53.86 56.697"><defs><linearGradient id="a" x1="0" x2="50.904" y1="51.073" y2="51.073" gradientTransform="scale(1.05807 .94511)" gradientUnits="userSpaceOnUse"><stop offset="0" stop-color="#40c4f5"/><stop offset="1" stop-color="#0095e6"/></linearGradient><linearGradient id="b" x1="0" x2="25.553" y1="77.191" y2="77.191" gradientTransform="scale(1.06603 .93806)" gradientUnits="userSpaceOnUse"><stop offset="0" stop-color="#0078d4"/><stop offset="1" stop-color="#2064ae"/></linearGradient><linearGradient id="c" x1="0" x2="34.792" y1="58.952" y2="58.952" gradientTransform="scale(.97265 1.02812)" gradientUnits="userSpaceOnUse"><stop offset="0" stop-color="#7cecff"/><stop offset="1" stop-color="#50e6ff"/></linearGradient><linearGradient id="d" x1="0" x2="31.066" y1="52.639" y2="52.639" gradientTransform="scale(.86848 1.15143)" gradientUnits="userSpaceOnUse"><stop offset="0" stop-color="#a7f2ff"/><stop offset="1" stop-color="#7cecff"/></linearGradient></defs><g transform="translate(-5.386 -5.667)"><title>Page-1</title><g transform="translate(5.386 -34.016)"><title>Mixed Reality Guide.22445</title><title>Sheet.22446</title><title>Sheet.22447</title><title>Sheet.22448</title><path d="m40.39 48.27 13.47 24.05-13.47 24.06H13.46L0 72.32l13.46-24.05Z" style="fill:url(#a);stroke:none;stroke-width:.75;stroke-linecap:butt"/><g transform="translate(13.211 -12.344)"><title>Sheet.22449</title><path d="m20.58 72.41 6.66 11.72-6.87 12.25H6.64L0 84.67l6.86-12.26Z" style="fill:url(#b);stroke:none;stroke-width:.75;stroke-linecap:butt"/></g><g transform="translate(1.703 -20.707)"><title>Sheet.22450</title><path d="m20.58 60.61 13.26 23.51-6.86 12.26H13.27L0 72.87l6.86-12.26Z" style="fill:#000;fill-opacity:.23999999;stroke:none;stroke-width:.75;stroke-linecap:butt"/></g><g transform="translate(1.713 -19.73)"><title>Sheet.22451</title><path d="m20.58 60.61 13.26 23.51-6.86 12.26H13.27L0 72.87l6.86-12.26Z" style="fill:#000;fill-opacity:.31999996;stroke:none;stroke-width:.75;stroke-linecap:butt"/></g><g transform="translate(1.705 -20.927)"><title>Sheet.22452</title><path d="m20.58 60.61 13.26 23.51-6.86 12.26H13.27L0 72.87l6.86-12.26Z" style="fill:url(#c);stroke:none;stroke-width:.75;stroke-linecap:butt"/></g><g transform="translate(8.564 -20.927)"><title>Sheet.22453</title><path d="m13.72 60.61 13.26 23.51v.01l-6.86 12.25H6.41l6.78-12.12L0 60.61Z" style="fill:url(#d);stroke:none;stroke-width:.75;stroke-linecap:butt"/></g></g></g></svg>

<?xml version="1.0" encoding="UTF-8" standalone="no"?>
<!-- Generated by Microsoft Visio, SVG Export Mixed Reality Guide.svg Page-1 -->

<svg
   xmlns:dc="http://purl.org/dc/elements/1.1/"
   xmlns:cc="http://creativecommons.org/ns#"
   xmlns:rdf="http://www.w3.org/1999/02/22-rdf-syntax-ns#"
   xmlns:svg="http://www.w3.org/2000/svg"
   xmlns="http://www.w3.org/2000/svg"
   xmlns:sodipodi="http://sodipodi.sourceforge.net/DTD/sodipodi-0.dtd"
   xmlns:inkscape="http://www.inkscape.org/namespaces/inkscape"
   width="53.860001"
   height="56.696899"
   viewBox="0 0 53.860002 56.6969"
   xml:space="preserve"
   class="st7"
   version="1.1"
   id="svg68"
   sodipodi:docname="Mixed Reality Guide.svg"
   style="font-size:12px;overflow:visible;color-interpolation-filters:sRGB;fill:none;fill-rule:evenodd;stroke-linecap:square;stroke-miterlimit:3"
   inkscape:version="0.92.5 (2060ec1f9f, 2020-04-08)"><metadata
   id="metadata72"><rdf:RDF><cc:Work
       rdf:about=""><dc:format>image/svg+xml</dc:format><dc:type
         rdf:resource="http://purl.org/dc/dcmitype/StillImage" /></cc:Work></rdf:RDF></metadata><sodipodi:namedview
   pagecolor="#ffffff"
   bordercolor="#666666"
   borderopacity="1"
   objecttolerance="10"
   gridtolerance="10"
   guidetolerance="10"
   inkscape:pageopacity="0"
   inkscape:pageshadow="2"
   inkscape:window-width="640"
   inkscape:window-height="480"
   id="namedview70"
   showgrid="false"
   inkscape:zoom="2.4486917"
   inkscape:cx="26.929119"
   inkscape:cy="14.175301"
   inkscape:window-x="0"
   inkscape:window-y="0"
   inkscape:window-maximized="0"
   inkscape:current-layer="svg68" />
	<style
   type="text/css"
   id="style2">
	<![CDATA[
		.st1 {fill:url(#grad0-7);stroke:none;stroke-linecap:butt;stroke-width:0.75}
		.st2 {fill:url(#grad0-11);stroke:none;stroke-linecap:butt;stroke-width:0.75}
		.st3 {fill:#000000;fill-opacity:0.24;stroke:none;stroke-linecap:butt;stroke-width:0.75}
		.st4 {fill:#000000;fill-opacity:0.32;stroke:none;stroke-linecap:butt;stroke-width:0.75}
		.st5 {fill:url(#grad0-19);stroke:none;stroke-linecap:butt;stroke-width:0.75}
		.st6 {fill:url(#grad0-23);stroke:none;stroke-linecap:butt;stroke-width:0.75}
		.st7 {fill:none;fill-rule:evenodd;font-size:12px;overflow:visible;stroke-linecap:square;stroke-miterlimit:3}
	]]>
	</style>

	<defs
   id="Patterns_And_Gradients">
		<linearGradient
   id="grad0-7"
   x1="0"
   y1="51.073168"
   x2="50.903876"
   y2="51.073168"
   gradientTransform="scale(1.0580727,0.94511467)"
   gradientUnits="userSpaceOnUse">
			<stop
   offset="0"
   stop-color="#40c4f5"
   stop-opacity="1"
   id="stop4" />
			<stop
   offset="1"
   stop-color="#0095e6"
   stop-opacity="1"
   id="stop6" />
		</linearGradient>
		<linearGradient
   id="grad0-11"
   x1="0"
   y1="77.191251"
   x2="25.552745"
   y2="77.191251"
   gradientTransform="scale(1.0660303,0.93805967)"
   gradientUnits="userSpaceOnUse">
			<stop
   offset="0"
   stop-color="#0078d4"
   stop-opacity="1"
   id="stop9" />
			<stop
   offset="1"
   stop-color="#2064ae"
   stop-opacity="1"
   id="stop11" />
		</linearGradient>
		<linearGradient
   id="grad0-19"
   x1="0"
   y1="58.952197"
   x2="34.79162"
   y2="58.952197"
   gradientTransform="scale(0.97264802,1.0281211)"
   gradientUnits="userSpaceOnUse">
			<stop
   offset="0"
   stop-color="#7cecff"
   stop-opacity="1"
   id="stop14" />
			<stop
   offset="1"
   stop-color="#50e6ff"
   stop-opacity="1"
   id="stop16" />
		</linearGradient>
		<linearGradient
   id="grad0-23"
   x1="0"
   y1="52.638777"
   x2="31.06565"
   y2="52.638777"
   gradientTransform="scale(0.86848336,1.1514325)"
   gradientUnits="userSpaceOnUse">
			<stop
   offset="0"
   stop-color="#a7f2ff"
   stop-opacity="1"
   id="stop19" />
			<stop
   offset="1"
   stop-color="#7cecff"
   stop-opacity="1"
   id="stop21" />
		</linearGradient>
	</defs>
	<g
   id="g66"
   transform="translate(-5.38583,-5.6674)">
		<title
   id="title25">Page-1</title>
		<g
   id="group22445-1"
   transform="translate(5.38583,-34.0157)">
			<title
   id="title27">Mixed Reality Guide.22445</title>
			<g
   id="group22446-2">
				<title
   id="title29">Sheet.22446</title>
				<g
   id="group22447-3">
					<title
   id="title31">Sheet.22447</title>
					<g
   id="shape22448-4">
						<title
   id="title33">Sheet.22448</title>
						<path
   d="M 40.39,48.27 53.86,72.32 40.39,96.38 H 13.46 L 0,72.32 13.46,48.27 Z"
   class="st1"
   id="path35"
   inkscape:connector-curvature="0"
   style="fill:url(#grad0-7);stroke:none;stroke-width:0.75;stroke-linecap:butt" />
					</g>
					<g
   id="shape22449-8"
   transform="translate(13.2114,-12.3438)">
						<title
   id="title38">Sheet.22449</title>
						<path
   d="m 20.58,72.41 6.66,11.72 -6.87,12.25 H 6.64 L 0,84.67 6.86,72.41 Z"
   class="st2"
   id="path40"
   inkscape:connector-curvature="0"
   style="fill:url(#grad0-11);stroke:none;stroke-width:0.75;stroke-linecap:butt" />
					</g>
					<g
   id="shape22450-12"
   transform="translate(1.70334,-20.7073)">
						<title
   id="title43">Sheet.22450</title>
						<path
   d="M 20.58,60.61 33.84,84.12 26.98,96.38 H 13.27 L 0,72.87 6.86,60.61 Z"
   class="st3"
   id="path45"
   inkscape:connector-curvature="0"
   style="fill:#000000;fill-opacity:0.23999999;stroke:none;stroke-width:0.75;stroke-linecap:butt" />
					</g>
					<g
   id="shape22451-14"
   transform="translate(1.71265,-19.7303)">
						<title
   id="title48">Sheet.22451</title>
						<path
   d="M 20.58,60.61 33.84,84.12 26.98,96.38 H 13.27 L 0,72.87 6.86,60.61 Z"
   class="st4"
   id="path50"
   inkscape:connector-curvature="0"
   style="fill:#000000;fill-opacity:0.31999996;stroke:none;stroke-width:0.75;stroke-linecap:butt" />
					</g>
					<g
   id="shape22452-16"
   transform="translate(1.70498,-20.9269)">
						<title
   id="title53">Sheet.22452</title>
						<path
   d="M 20.58,60.61 33.84,84.12 26.98,96.38 H 13.27 L 0,72.87 6.86,60.61 Z"
   class="st5"
   id="path55"
   inkscape:connector-curvature="0"
   style="fill:url(#grad0-19);stroke:none;stroke-width:0.75;stroke-linecap:butt" />
					</g>
					<g
   id="shape22453-20"
   transform="translate(8.56436,-20.9269)">
						<title
   id="title58">Sheet.22453</title>
						<path
   d="m 13.72,60.61 13.26,23.51 v 0.01 L 20.12,96.38 H 6.41 L 13.19,84.26 0,60.61 Z"
   class="st6"
   id="path60"
   inkscape:connector-curvature="0"
   style="fill:url(#grad0-23);stroke:none;stroke-width:0.75;stroke-linecap:butt" />
					</g>
				</g>
			</g>
		</g>
	</g>
</svg>
